Newaita-dark/actions/22/media-eject.svg

<svg height="22" viewBox="0 0 22 22" width="22" xmlns="http://www.w3.org/2000/svg"><g fill="#e0e0e0"><path d="m2.734375 18.367188c0 .503906.40625.910156.910156.910156h14.550781c.503907 0 .910157-.40625.910157-.910156 0-.5-.40625-.910157-.910157-.910157h-14.550781c-.503906 0-.910156.410157-.910156.910157zm0 0"/><path d="m2.738281 14.726562c.003907.496094.410157.894532.90625.894532h14.550781c.722657 0 1.15625-.804688.753907-1.40625l-7.277344-10.914063c-.355469-.539062-1.148437-.539062-1.503906 0l-7.277344 10.914063c-.101563.152344-.15625.328125-.152344.511718zm0 0"/></g></svg>

<?xml version="1.0" encoding="UTF-8"?>
<svg xmlns="http://www.w3.org/2000/svg" xmlns:xlink="http://www.w3.org/1999/xlink" width="22px" height="22px" viewBox="0 0 22 22" version="1.1">
<g id="surface1">
<path style=" stroke:none;fill-rule:nonzero;fill:rgb(87.843138%,87.843138%,87.843138%);fill-opacity:1;" d="M 2.734375 18.367188 C 2.734375 18.871094 3.140625 19.277344 3.644531 19.277344 L 18.195312 19.277344 C 18.699219 19.277344 19.105469 18.871094 19.105469 18.367188 C 19.105469 17.867188 18.699219 17.457031 18.195312 17.457031 L 3.644531 17.457031 C 3.140625 17.457031 2.734375 17.867188 2.734375 18.367188 Z M 2.734375 18.367188 "/>
<path style=" stroke:none;fill-rule:nonzero;fill:rgb(87.843138%,87.843138%,87.843138%);fill-opacity:1;" d="M 2.738281 14.726562 C 2.742188 15.222656 3.148438 15.621094 3.644531 15.621094 L 18.195312 15.621094 C 18.917969 15.621094 19.351562 14.816406 18.949219 14.214844 L 11.671875 3.300781 C 11.316406 2.761719 10.523438 2.761719 10.167969 3.300781 L 2.890625 14.214844 C 2.789062 14.367188 2.734375 14.542969 2.738281 14.726562 Z M 2.738281 14.726562 "/>
</g>
</svg>
